X: 586
T:Blooming Meadows
T:Dooney's Rock
M:6/8
L:1/8
R:Jig
Z:Pat Higgins
Z:Turned into usable abc Steve Mansfield 01 November 2002
N:Posted to the woodenflute mailing list October 2002
C:Sean Ryan
D: Himself playing on Come West Along the Road ( Video )
K:G
B|AGE EDE|GAB cBA|BGE D,BD|GAB cBA|BGE E3|GAB c2d|
eag edB|BAG A2:: E|Ace aga|bag edB|GBd gfg|
age dBG|Ace aga|bag edB|GBd g3|edB A2E:|
<end>
<start>
